!!!OTL: Ein alter Ruf an St. Lorenz
!!!ARE: Europa, Mitteleuropa, Deutschland
!!!SCT: A0615A
!!!YEM: Copyright 1995, estate of Helmut Schaffrath.
**kern
*ICvox
*Ivox
*M4/2
*k[f#]
*G:
{2g
=1
2g
2a
2b
2cc
=2
1dd
2dd}
{2dd
=3
2ee
2dd
2b
2cc
=4
2.dd
4cc
2b}
{2dd
=5
2cc
2b
2a
2cc
=6
2.b
4a
2g}
{2b
=7
2a
4g
4g
2a
2a
=8
1.g}
==
!!!AGN: Romanze, Ballade, Lied, religioeses Lied
!! Beuttner 1602 II No. 67.
!!!ONB: ESAC (Essen Associative Code) Database: ALTDEU
!!!AMT: simple quadruple
!!!AIN: vox
!!!EED: Helmut Schaffrath
!!!EEV: 1.0
*-
